outputs/icons/communication/palette_round.svg

<svg xmlns="http://www.w3.org/2000/svg" width="1200" height="1200" fill="none"><path fill="#000" d="M600 100c-275.5 0-500 224.5-500 500s224.5 500 500 500c69 0 125-56 125-125 0-30.5-11.5-60-32-83.5-4-5-6.5-10.5-6.5-16.5 0-14 11-25 25-25H800c165.5 0 300-134.5 300-300 0-248-224.5-450-500-450m275 550c-41.5 0-75-33.5-75-75s33.5-75 75-75 75 33.5 75 75-33.5 75-75 75M725 450c-41.5 0-75-33.5-75-75s33.5-75 75-75 75 33.5 75 75-33.5 75-75 75M250 575c0-41.5 33.5-75 75-75s75 33.5 75 75-33.5 75-75 75-75-33.5-75-75m300-200c0 41.5-33.5 75-75 75s-75-33.5-75-75 33.5-75 75-75 75 33.5 75 75"/></svg>

<svg width="1200" height="1200" viewBox="0 0 1200 1200" fill="none" xmlns="http://www.w3.org/2000/svg"><path d="M600 100C324.5 100 100 324.5 100 600C100 875.5 324.5 1100 600 1100C669 1100 725 1044 725 975C725 944.5 713.5 915 693 891.5C689 886.5 686.5 881 686.5 875C686.5 861 697.5 850 711.5 850H800C965.5 850 1100 715.5 1100 550C1100 302 875.5 100 600 100ZM875 650C833.5 650 800 616.5 800 575C800 533.5 833.5 500 875 500C916.5 500 950 533.5 950 575C950 616.5 916.5 650 875 650ZM725 450C683.5 450 650 416.5 650 375C650 333.5 683.5 300 725 300C766.5 300 800 333.5 800 375C800 416.5 766.5 450 725 450ZM250 575C250 533.5 283.5 500 325 500C366.5 500 400 533.5 400 575C400 616.5 366.5 650 325 650C283.5 650 250 616.5 250 575ZM550 375C550 416.5 516.5 450 475 450C433.5 450 400 416.5 400 375C400 333.5 433.5 300 475 300C516.5 300 550 333.5 550 375Z" fill="black"/></svg>
